packages/bezier-icons/icons/into-page.svg

<svg width="24" height="24" viewBox="0 0 24 24" fill="none" xmlns="http://www.w3.org/2000/svg">
<path fill-rule="evenodd" clip-rule="evenodd" d="M13.6428 21H12V19H13.6C14.7366 19 15.5289 18.9992 16.1458 18.9488C16.7509 18.8994 17.0986 18.8072 17.362 18.673C17.9265 18.3854 18.3854 17.9265 18.673 17.362C18.8072 17.0986 18.8994 16.7509 18.9488 16.1458C18.9992 15.5289 19 14.7366 19 13.6L19 10.4C19 9.26339 18.9992 8.47108 18.9488 7.85424C18.8994 7.24907 18.8072 6.90138 18.673 6.63803C18.3854 6.07354 17.9265 5.6146 17.362 5.32698C17.0986 5.19279 16.7509 5.10062 16.1458 5.05118C15.5289 5.00078 14.7366 5 13.6 5L10.4 5C9.26339 5 8.47108 5.00078 7.85424 5.05118C7.24907 5.10062 6.90138 5.19279 6.63803 5.32698C6.07354 5.6146 5.6146 6.07354 5.32698 6.63803C5.19279 6.90138 5.10062 7.24907 5.05118 7.85424C5.00078 8.47108 5 9.26339 5 10.4L5 12H3L3 10.3572C2.99999 9.27339 2.99998 8.39925 3.05782 7.69137C3.11737 6.96252 3.24318 6.32234 3.54497 5.73005C4.02433 4.78924 4.78924 4.02433 5.73005 3.54497C6.32234 3.24318 6.96253 3.11737 7.69138 3.05782C8.39925 2.99998 9.27339 2.99999 10.3572 3L13.6428 3C14.7266 2.99999 15.6008 2.99998 16.3086 3.05782C17.0375 3.11737 17.6777 3.24318 18.27 3.54497C19.2108 4.02434 19.9757 4.78924 20.455 5.73005C20.7568 6.32234 20.8826 6.96253 20.9422 7.69138C21 8.39925 21 9.27341 21 10.3572V13.6428C21 14.7266 21 15.6007 20.9422 16.3086C20.8826 17.0375 20.7568 17.6777 20.455 18.27C19.9757 19.2108 19.2108 19.9757 18.27 20.455C17.6777 20.7568 17.0375 20.8826 16.3086 20.9422C15.6007 21 14.7266 21 13.6428 21Z" fill="#313234"/>
<path d="M13.8083 15.5882C14 15.3638 14 14.8791 14 13.9098V11.6C14 11.04 14 10.7599 13.891 10.546C13.7951 10.3578 13.6421 10.2049 13.454 10.109C13.2401 10 12.96 10 12.4 10H10.0902C9.12089 10 8.63623 10 8.41181 10.1917C8.21708 10.358 8.11374 10.6075 8.13383 10.8628C8.15699 11.157 8.49969 11.4997 9.18509 12.1851L9.79289 12.7929L4.79289 17.7929C4.40237 18.1834 4.40237 18.8166 4.79289 19.2071C5.18342 19.5976 5.81658 19.5976 6.20711 19.2071L11.2071 14.2071L11.8149 14.8149C12.5003 15.5003 12.843 15.843 13.1372 15.8662C13.3925 15.8863 13.642 15.7829 13.8083 15.5882Z" fill="#313234"/>
</svg>

<svg xmlns="http://www.w3.org/2000/svg" width="24" height="24" fill="none" viewBox="0 0 24 24"><path fill="#313234" fill-rule="evenodd" d="M13.643 21H12v-2h1.6c1.137 0 1.929 0 2.546-.051.605-.05.953-.142 1.216-.276a3 3 0 0 0 1.311-1.311c.134-.263.226-.611.276-1.216.05-.617.051-1.41.051-2.546v-3.2c0-1.137 0-1.929-.051-2.546-.05-.605-.142-.953-.276-1.216a3 3 0 0 0-1.311-1.311c-.263-.134-.611-.226-1.216-.276C15.529 5.001 14.736 5 13.6 5h-3.2c-1.137 0-1.929 0-2.546.051-.605.05-.953.142-1.216.276a3 3 0 0 0-1.311 1.311c-.134.263-.226.611-.276 1.216C5.001 8.471 5 9.264 5 10.4V12H3v-1.643c0-1.084 0-1.958.058-2.666.06-.728.185-1.369.487-1.96A5 5 0 0 1 5.73 3.544c.592-.302 1.233-.428 1.961-.487C8.4 3 9.273 3 10.357 3h3.286c1.084 0 1.958 0 2.666.058.729.06 1.369.185 1.961.487a5 5 0 0 1 2.185 2.185c.302.592.428 1.233.487 1.961C21 8.4 21 9.273 21 10.357v3.286c0 1.084 0 1.958-.058 2.666-.06.729-.185 1.369-.487 1.961a5 5 0 0 1-2.185 2.185c-.592.302-1.232.428-1.961.487C15.6 21 14.727 21 13.643 21" clip-rule="evenodd"/><path fill="#313234" d="M13.808 15.588C14 15.364 14 14.88 14 13.91V11.6c0-.56 0-.84-.109-1.054a1 1 0 0 0-.437-.437C13.24 10 12.96 10 12.4 10h-2.31c-.97 0-1.454 0-1.678.192a.8.8 0 0 0-.278.67c.023.295.366.638 1.051 1.323l.608.608-5 5a1 1 0 1 0 1.414 1.414l5-5 .608.608c.685.685 1.028 1.028 1.322 1.051a.8.8 0 0 0 .671-.278"/></svg>
